!!!!SEGMENT: pl-wtm--a-43-186-99--001-006_fitelberg-grzegorz--szesc-piesni-op-22-no-6-melancholia-moich-marzen-swiaty.krn
!!!cenid: 19xx:101
!!!COM: Fitelberg, Grzegorz
!!!COM-rismID: pe41023683
!!!CDT: 1879-1953
!!!CNT: Polish
!!!GTL: Sześć pieśni Op. 22
!!!OTL: No. 6. Melancholia/Moich marzeń światy
!!!OMV: 006
!!!PDT:
!!!AGN: Secular; Song
!!!YEC: Copyright 2022 Narodowy Instytut Fryderyka Chopina (https://polishscores.org)
!!!YEM: License CC-BY-4.0 (https://creativecommons.org/licenses/by/4.0)
!!!SMS-siglum: PL-Wtm
!!!SMS-shelfmark: A-43.186/99
!!!SMS-variant:
!!!SMS-altvar:
!!!SMS-shelfwork: 001-006 G
!!!NIFC-rismSourceID: 1001135590
!!!NIFC-rismChildID: 1001135623
!!!NIFC-islandoraID: pl-wtm:4771
!!!URL-pdf-islandora: https://repozytorium.nifc.pl/islandora/object/pl-wtm%3A4771/datastream/PDF/view
!!!URL-scan: https://polish.musicsources.pl/pl/lokalizacje/galeria/druki-muzyczne/15759/9 @EN{Scan on Polish Music Sources Website} @PL{Skany w portalu Dziedzictwo Muzyki Polskiej w otwartym dostępie}
!!!IIIF:
!!!ONB-nifc:
!!!AIN: 1 canto 1 piano
!!!key: none
**kern	**kern	**dynam	**kern	**text	**text	**dynam
*part2	*part2	*part2	*part1	*part1	*part1	*part1
*staff3	*staff2	*staff2/3	*staff1	*staff1	*staff1	*
*group2	*group2	*	*group1	*	*	*
*IGacmp	*IGacmp	*	*IGsolo	*	*	*
*ICklav	*ICklav	*	*ICvox	*	*	*
*Ipiano	*Ipiano	*	*Icanto	*	*	*
*I"Klavier.	*I"Klavier.	*	*I"Singstimme.	*	*	*
*I'	*I'	*	*I'	*	*	*
*clefF4	*clefG2	*	*clefG2	*	*	*
*k[]	*k[]	*	*k[]	*	*	*
*A-:	*A-:	*	*A-:	*	*	*
*M4/4	*M4/4	*	*M4/4	*	*	*
!!LO:TX:a:B:t=Andante.
!LO:TX:a:i:t=sempre legato	!	!LO:DY:a=2	!	!	!	!
(8AAA-X\L	8r	pp	8r	.	.	.
=1	=1	=1	=1	=1	=1	=1
!!LO:TX:t=P:problem:zwrotka w jęz. polskim kursywą
!	!	!	!	!	!	!LO:DY:a
8e 8B-X 8E\)	4ff#X 4cc 4f#X\	.	4f#X/	Mei-	Mo-	p
!LO:TX:t=P:problem:"łamany" łuk	!	!	!	!	!	!
N(8B-\J	.	.	.	.	.	.
4ryy	8e/L	.	4g/	-ner	-ich	.
.	8c/	.	.	.	.	.
8ryy	8cc/JN)	.	4.ee\	Ju-	ma-	.
N(<8d#X>\L	4ryy	.	.	.	.	.
8f#>\J	.	.	.	.	.	.
8ryy	8e/L	.	8dd\	-gend	-rzeń	.
=2	=2	=2	=2	=2	=2	=2
*M3/2	*M3/2	*	*M3/2	*	*	*
*^	*^	*	*	*	*	*
8ryy	1ryy	8eeJ 8cc/N)	8ryy	.	2.dd\	Träu-	świ-	.
(<8f#X>\	.	8ryy	8ryy	.	.	.	.	.
!	!	!LO:TX:b:i:t=espressivo	!	!	!	!	!	!
4a>~\	.	8rff	4ryy	.	.	.	.	.
*	*	*8va	*	*	*	*	*	*
!	!	!	!	!LO:HP:a	!	!	!	!
.	.	(<8eeeL 8ccc/	.	>	.	.	.	.
!	!	!	!LO:TX:t=P:problem:4a-X~\ w źródle  zapisane 	!	!	!	!	!
4a-X>~\	.	8cccc/J)	4ryy	]	.	.	.	.
*	*	*X8va	*	*	*	*	*	*
.	.	8rff	.	.	.	.	.	.
!	!	!LO:TX:a:i:t=espressivo	!	!LO:HP:a	!	!	!	!
4g>~\	.	(4.ccc 4.ee 4.cc~/	4ryy	<	4cc\	-me,	-ty,	.
2g-X>~\)	4.ryy	.	2ryy	[	4r	.	.	.
!	!	!	!	!LO:HP:a	!	!	!	!
.	.	4ccc-X 4cc-X/	.	>	.	.	.	.
!	!	!	!	!	!	!	!	!LO:DY:a
.	.	.	.	.	4cc-X\	wo	kto	<[
.	(8AAA-X\L	8bb-X 8b-X/)	.	]]	.	.	.	.
*v	*v	*	*	*	*	*	*	*
*	*v	*v	*	*	*	*	*
=3	=3	=3	=3	=3	=3	=3
*M4/4	*M4/4	*	*M4/4	*	*	*
8AA-X\	1bb-X 1dd-X 1b-X~	.	2b-X\	seid	wró-	.
8f~\	.	.	.	.	.	.
8B-X\J	.	.	.	.	.	.
4F\	.	.	.	.	.	.
.	.	.	2f/	ihr	-ci	.
8AA-\L	.	.	.	.	.	.
8f\	.	.	.	.	.	.
8B-\J)	.	.	.	.	.	.
!!LO:LB:g=original
=4	=4	=4	=4	=4	=4	=4
*M3/4	*M3/4	*	*M3/4	*	*	*
*	*^	*	*	*	*	*
!	!	!	!	!	!	!	!LO:DY:a
8r	[2.aan [<2.an~/	(>2.dd-X\	<	2a/	hin?	was?	>
(8en~\L	.	.	.	.	.	.	.
8B-X~\J	.	.	.	.	.	.	.
4En\	.	.	.	.	.	.	]
.	.	.	.	4r	.	.	.
8AA-X/)	.	.	[[	.	.	.	.
=5	=5	=5	=5	=5	=5	=5	=5
*	*	*	*^	*	*	*	*
8r	4aa] 4a/]	2.ddn\)	<	.	2.r	.	.	.
(8f~\L	.	.	.	.	.	.	.	.
8Bn~\J	(2aa 2a~/	.	.	.	.	.	.	.
4F\)	.	.	.	.	.	.	.	.
!	!	!	!	!LO:DY:a=2	!	!	!	!
(8AAA-X\L	.	.	[[	pp	.	.	.	.
*	*	*	*v	*v	*	*	*	*
*	*v	*v	*	*	*	*	*
=6	=6	=6	=6	=6	=6	=6
*M4/4	*M4/4	*	*M4/4	*	*	*
!	!	!	!	!	!	!LO:DY:a
8f#X 8c 8F#X~\)	4gg#X 4dd 4g#X~>/)	pp	4g#X/	Mei-	Mo-	p
!LO:TX:t=P:problem:"łamany" łuk	!	!	!	!	!	!
N(8c\J	.	.	.	.	.	.
4ryy	8f#X/L	.	4a/	-ner	-ich	.
.	8d/	.	.	.	.	.
8ryy	8dd/JN)	.	4.ff#X\	Ju-	ma-	.
N(<8e#X>\L	8ryy	.	.	.	.	.
8g#y>\J	8ryy	.	.	.	.	.
8ryy	8f#X/L	.	8ee\	-gend	-rzeń	.
=7	=7	=7	=7	=7	=7	=7
*M3/2	*M3/2	*	*M3/2	*	*	*
*^	*^	*	*	*	*	*
8ryy	1ryy	8ff#XJ 8dd/N)	8ryy	.	2.ee\	Träu-	swi-	.
8g#X>\	.	8ryy	8ryy	.	.	.	.	.
!	!	!LO:TX:b:i:t=espressivo	!	!	!	!	!	!
(4b>~\	.	8rff	4ryy	.	.	.	.	.
*	*	*8va	*	*	*	*	*	*
!	!	!	!	!LO:HP:a	!	!	!	!
.	.	(<8fff#XL 8ddd/	.	>	.	.	.	.
4b-X>~\	.	8dddd/J)	4ryy	]	.	.	.	.
*	*	*X8va	*	*	*	*	*	*
.	.	8rgg	.	.	.	.	.	.
!	!	!LO:TX:a:i:t=espressivo	!	!LO:HP:a	!	!	!	!
4a>~\	.	(4.ddd 4.ff#X 4.dd~/	4ryy	>	4dd\	-me,	-ty,	.
2a-X>~\)	4ryy	.	2ryy	.	4r	.	.	.
.	.	4ddd-X 4dd-X/	.	.	.	.	.	.
.	.	.	.	]	.	.	.	.
!	!	!	!	!	!	!	!	!LO:DY:a
.	8ryy	.	.	.	4dd-X\	wo	kto	<[
.	(8AAA-X\L	8ccc 8cc/)	.	.	.	.	.	.
*v	*v	*	*	*	*	*	*	*
*	*v	*v	*	*	*	*	*
!!LO:LB:g=original
=8	=8	=8	=8	=8	=8	=8
*M4/4	*M4/4	*	*M4/4	*	*	*
8AA-X\	1ccc 1ee-X 1cc	.	2cc\	seid	wró-	.
8g~\	.	.	.	.	.	.
8c\J	.	.	.	.	.	.
4G\	.	.	.	.	.	.
.	.	.	2g/	ihr	-ci	>
8AA-\L	.	.	.	.	.	.
8g\	.	.	.	.	.	.
8c\J)	.	.	.	.	.	.
=9	=9	=9	=9	=9	=9	=9
*M3/4	*M3/4	*	*M3/4	*	*	*
*	*^	*	*	*	*	*
8r	[2.bbn [<2.bn/	(>2.ee-X\	<	2b\	hin?	was?	]
(8f#X~\L	.	.	.	.	.	.	.
8c~\J	.	.	.	.	.	.	.
4F#X\	.	.	.	.	.	.	.
.	.	.	[[	4r	.	.	.
8AA-X/)	.	.	.	.	.	.	.
=10	=10	=10	=10	=10	=10	=10	=10
8r	4bb] 4b/]	2.een\)	[	2.r	.	.	.
(8g\L	.	.	.	.	.	.	.
8c#X\J	2bb 2b/	.	<	.	.	.	.
4G\)	.	.	.	.	.	.	.
(8AAnL 8AAAn\	.	.	[[	.	.	.	.
*	*v	*v	*	*	*	*	*
=11	=11	=11	=11	=11	=11	=11
*M4/4	*M4/4	*	*M4/4	*	*	*
*^	*	*	*	*	*	*
!	!	!	!LO:HP:t=molto cresc.	!	!	!	!
8c\	4.c^>/	(4bb#X 4b#X\	<	1r	.	.	.
8G\	.	.	.	.	.	.	.
8e\J)	.	4ccc#X 4cc#X\	.	.	.	.	.
&(<8B^>/	8ryy	.	.	.	.	.	.
(8B-X\L	2B-^>/&)	4.fff#X 4.ff#X\)	.	.	.	.	.
8g>\	.	.	.	.	.	.	.
8ee>\J)	.	.	.	.	.	.	.
!LO:TX:t=P:problem:belka	!	!LO:TX:t=P:problem:brak początku łuku	!	!	!	!	!
(<8DDD\L	.	([8ggg [8eee [>8ccc# [8gg^\	f	.	.	.	.
*v	*v	*	*	*	*	*	*
!!LO:PB:g=original
=12	=12	=12	=12	=12	=12	=12
*	*^	*	*	*	*	*
8DD\L	(4.ggg] 4.eee_ 4.ccc#_> 4.gg/]	2ryy	.	1r	.	.	.
8F#X\	.	.	.	.	.	.	.
8e 8c\	.	.	.	.	.	.	.
8f#X>\	4.ggg#X 4.eee] 4.ccc#] 4.gg#X/))	.	.	.	.	.	.
8ee> 8cc>\	.	4ryy	.	.	.	.	.
8ff#X>\J	.	.	.	.	.	.	.
8eee> 8ccc>\)	(4aaa (4aa/	8ryy	.	.	.	.	.
!LO:TX:t=P:problem:mixed beam	!	!	!	!	!	!	!
8CC#XL 8CCC#X/	.	8r	ff	.	.	.	.
*	*v	*v	*	*	*	*	*
=13	=13	=13	=13	=13	=13	=13
!	!	!	!LO:TX:a:t=	!	!	!LO:DY:t=%s poco largamente
8e#XJ 8c#X 8E#X^>\	2.aaa#X 2.ccc#X 2.aa#X/))	.	2ff#X\	Ihr	wy,	f
!	!LO:TX:a:i:t=poco largamente	!	!	!	!	!
(8F#X\L	.	.	.	.	.	.
8f#X>^>\J)	.	.	.	.	.	.
(8G#X\L	.	.	.	.	.	.
*	*	*	*Xbrackettup	*	*	*
!	!	!	!LO:TUP:a:problem:klamra łukowa	!	!	!
8g#X>^>\J)	.	.	6cc#X\	himm-	nie-	.
(8G##X\L	.	.	.	.	.	.
.	.	.	6cc#\	-li-	-bios	.
8g##X>^>\J)	[4fff#X [>4ff#X/	.	.	.	.	.
.	.	.	6cc#\	-schen	błę-	.
(8A#X\L	.	.	.	.	.	.
=14	=14	=14	=14	=14	=14	=14
*	*^	*	*	*	*	*
8a#X>^>\J)	2fff#] 2ff#/]	4.ryy	.	4.cc#X\	Räu-	-ki-	.
(8B\L	.	.	.	.	.	.	.
8b>^>\J)	.	.	.	.	.	.	.
8ryy	.	(([8c#X/	p	8f#X/	-me,	-ty,	.
!	!	!LO:S:s=2:note:problem=note-level slur	!	!	!	!	!
[2AAn [2CC#X [2AAAn~/	2cc#X 2f#X) 2c#~>/])	2ryy	.	4r	.	.	.
!	!	!	!	!	!	!	!LO:DY:a
.	.	.	.	4c#X/	wie	dziś	p
*	*v	*v	*	*	*	*	*
=15	=15	=15	=15	=15	=15	=15
1AA] 1CC#_> ((1AAA]	8r	.	2c#X/	fern	peł-	.
!	!	!LO:HP:t=dim. e rit.	!	!	!	!
.	(>[8c#X/L	>	.	.	.	.
.	8cc#XJ 8f#X 8c#/])	.	.	.	.	.
.	(>[8d/L	.	.	.	.	.
!!LO:TX:a:i:t=rit.
.	8ddJ 8f# 8d/])	.	4f#X/	ich	-ne	.
.	(>[8e/L	.	.	.	.	.
.	8eeJ 8g 8e/])	.	4g/	euch	już	.
!	!LO:TX:t=P:problem:belka	!	!	!	!	!
.	(>[8e#X/L	.	.	.	.	.
!!LO:LB:g=original
=16	=16	=16	=16	=16	=16	=16
*^	*	*	*	*	*	*
!LO:N:vis=2	!	!	!	!	!	!	!
2.GG#X 2.CC#X] 2.GGG#X/)))	4r	[2ee#X [>2g#X [2e#X/_)	pp	2g#X/	bin!	skaz!	.
.	2.CCC#X\	.	.	.	.	.	.
.	.	8ee#] 8g#] 8e#/]	.	2r	.	.	.
.	.	([<4cc#X\	.	.	.	.	.
4r	.	.	.	.	.	.	.
.	.	[8ccc#X 8cc#\_)	.	.	.	.	.
*v	*v	*	*	*	*	*	*
*clefG2	*	*	*	*	*	*
=17	=17	=17	=17	=17	=17	=17
!LO:TX:b:i:t=molto espressivo	!	!	!	!	!	!
(4f#X/	8ccc#] 8cc#\]	p	2r	.	.	.
.	([4ccc#X\	.	.	.	.	.
4g/	.	.	.	.	.	.
.	4ccc#] [4cc#X\	<	.	.	.	.
!	!	!	!	!	!	!LO:DY:a
4.ee\	.	.	4b-X\	Drau-	Kwie-	p
.	8bb-XL 8cc#\]	.	.	.	.	.
.	8ccc#\	.	4b-\	-ssen	-ciem	.
8dd\	8ddd\J	[	.	.	.	.
=18	=18	=18	=18	=18	=18	=18
2dd\	8eee\	.	2g/	grü-	mie-	.
.	[<4ee\	.	.	.	.	.
.	[4gg 4ee\_	>	.	.	.	.
4cc\	.	.	4g/	-nen	-nią	.
.	4eee 4gg] 4ee\])	.	.	.	.	.
4b\)	.	.	4g/	die	się	.
.	8r	.	.	.	.	.
=19	=19	=19	=19	=19	=19	=19
(4b-X\	8r	]	2dd\	Bäu-	ła-	.
.	([4fff\	<	.	.	.	.
4bn\	.	.	.	.	.	.
.	4fff] [4ff\	.	.	.	.	.
4.gg#X\	.	.	4dd\	-me,	-ny,	.
.	8dddL 8ff\]	.	.	.	.	.
.	8fff\	.	4r	.	.	.
8ff#X\	8fff#X\J	[	.	.	.	.
=20	=20	=20	=20	=20	=20	=20
2ff#X\	8ggg#X\	.	2r	.	.	.
.	[<4gg#X\	.	.	.	.	.
.	[4bb 4gg#\_	>	.	.	.	.
4ee\	.	.	4bn\	Flur	peł-	.
.	4ggg# 4bb] 4gg#\])	.	.	.	.	.
4ee-X\)	.	.	4b\	in	-no	.
!	!LO:TX:t=P:problem:"otwarte" widełki dim. (brak zakończenia w następnym takcie)	!	!	!	!	!
.	8r	]]	.	.	.	.
!!LO:LB:g=original
=21	=21	=21	=21	=21	=21	=21
*	*8va	*	*	*	*	*
2.dd:: 2.a:: 2.d;:/	2.aaa:: 2.ddd: 2.aa;:\	.	4.ff#X\	Blü-	wo-	.
*	*X8va	*	*	*	*	*
!	!	!	!LO:TX:a:i:t=rit.	!	!	!
.	.	.	.	.	.	.
.	.	.	8a/	-te	-ni	.
.	.	.	4d;/	steht_	fal_	.
4r	8r	.	4r	.	.	.
.	(>[>8gg#X/	.	.	.	.	.
=22	=22	=22	=22	=22	=22	=22
*^	*^	*	*	*	*	*
!	!	!	!	!LO:DY:t=%s dolce	!	!	!	!
(<4ff#X\	2ryy	4gg#/]	1ff#X	p	1r	.	.	.
4ee\	.	4aa/	.	.	.	.	.	.
4dd\	2dd/	4.fff#X/	.	.	.	.	.	.
4cc#X\	.	.	.	.	.	.	.	.
.	.	8eee/	.	.	.	.	.	.
*v	*v	*	*	*	*	*	*	*
*	*v	*v	*	*	*	*	*
=23	=23	=23	=23	=23	=23	=23
*M3/2	*M3/2	*	*M3/2	*	*	*
*^	*^	*	*	*	*	*
4ccn\	1.dd 1.cc	2.eee/	2.ff#X\	.	1.r	.	.	.
4b\	.	.	.	.	.	.	.	.
4b-X\	.	.	.	.	.	.	.	.
4a\	.	4ddd/	4ryy	<	.	.	.	.
4a-X\	.	4ff#X/	2ryy	.	.	.	.	.
4g\	.	4gg/	.	[	.	.	.	.
*v	*v	*	*	*	*	*	*	*
*	*v	*v	*	*	*	*	*
=24	=24	=24	=24	=24	=24	=24
*M4/4	*M4/4	*	*M4/4	*	*	*
*^	*^	*	*	*	*	*
2f#X\	[>1cc	2gg#X/	(1dd	>	1r	.	.	.
2e\	.	2aa/	.	.	.	.	.	.
=25	=25	=25	=25	=25	=25	=25	=25	=25
2.d\)	2.cc/]	2.ccc/)	2.ee\)	]]	2r	.	.	.
!	!	!	!	!	!LO:TX:a:i:t=più lento	!	!	!LO:DY:a:rj
.	.	.	.	.	4dd\	Mei-	Mo-	pp
4ryy	4r	4r	4ryy	.	4dd\	-ne	-je	.
*v	*v	*	*	*	*	*	*	*
*clefF4	*	*	*	*	*	*	*
!!LO:LB:g=original
=26	=26	=26	=26	=26	=26	=26	=26
!	!LO:TX:a:i:t=più lento	!	!	!	!	!	!
[1e-X [1d-X	(4an/	[1g	pp	2ee-X\	Lie-	pie-	.
.	4b-X/	.	.	.	.	.	.
!	!	!	!	!	!	!LO:SIC:v:s=-śni	!
.	4gg/	.	.	4b-X\	-der	-sni	.
.	4ff/	.	.	8r	.	.	.
.	.	.	.	8ff\	sind	to	.
*	*v	*v	*	*	*	*	*
=27	=27	=27	=27	=27	=27	=27
*M3/2	*M3/2	*	*M3/2	*	*	*
*^	*^	*	*	*	*	*
1.e-] 1.d-]	(4d-y\	2.ff/	1g_	.	2.ff\	Schaü-	pia-	.
.	4c\	.	.	.	.	.	.	.
.	4c-\	.	.	.	.	.	.	.
!	!	!	!	!LO:HP:a	!	!	!	!
.	4B-X\	2.ee-X/)	.	>	4ee-X\	-me	-ny	.
!	!	!	!	!	!	!	!	!LO:HP:a
.	4B--\	.	4g\]	.	4g/	die	zwie-	<
.	4A-X\	.	(>4a-X\	]]	4a-X/	der	-wa	[[
*v	*v	*	*	*	*	*	*	*
*	*v	*v	*	*	*	*	*
=28	=28	=28	=28	=28	=28	=28
*M4/4	*M4/4	*	*M4/4	*	*	*
*^	*^	*	*	*	*	*
!	!	!	!	!	!	!	!	!LO:HP:a
([1d-X	2G\	2an/	&((1e-X	.	2an/	Wind	wiatr	>
.	2F\	2b-X/	.	.	2b-X\	ver-	je	.
*	*	*v	*v	*	*	*	*	*
=29	=29	=29	=29	=29	=29	=29	=29
1d-]	[1E-X	1dd-X 1f)	.	2dd-X\	-weht...	w dal...	]
.	.	.	.	2r	.	.	.
=30	=30	=30	=30	=30	=30	=30	=30
!	!	!	!LO:HP:a	!	!	!	!
1c-X	2E-\])	1ddn (<1f#X	>	1r	.	.	.
.	.	.	>	.	.	.	.
.	(2EEE-X\	.	.	.	.	.	.
=31	=31	=31	=31	=31	=31	=31	=31
1B-X)	1E-X)	1ee-X 1g))&)	]	1r	.	.	.
*v	*v	*	*	*	*	*	*
==	==	==	==	==	==	==
*-	*-	*-	*-	*-	*-	*-
!!!system-decoration: g1{(g2)}
!!!RDF**kern: i = editorial accidental
!!!RDF**kern: > = above
!!!RDF**kern: < = below
!!!RDF**kern: N = linked
!!!RDF**dynam: > = "dim.", fontstyle= "italic"
!!!ENC: Anastazja Marusiak
!!!EED: Katarzyna Serwa
!!!END: 2023-10-11
!!!EEV: 2023-10-23
